X: 34048
T: Reel De Janeiro
R: reel
M: 4/4
K: Edorian
E~EEE GEGB|AAAA BAFD|E~EEE GEGB|AAAB2 AFD|
E~EEE GEGB|AAAA BABd|eddA BAFB|1 AFED AFED:|2 BAGF E4||
|:deed edef|gggb afed|1 eeeb2 ega|bafe d3B:|2 afed edBA|BAGF E4||
|:deed edef|gggb afed|1 eeeb2 ega|bafe d3B:|2 afed edBA|BAGF E4||

